**kern	**kern	**dynam
*part1	*part1	*part1
*staff2	*staff1	*
*I"Piano	*	*
*clefF4	*clefG2	*
*k[]	*k[]	*
=1	=1	=1
4FFF 4FF	8dL 8dd	.
.	8f 8a	.
4DDD 4DD	8a 8aa	.
.	8ddJ 8ff	.
=	=	=
*	*^	*
!	!	!	!LO:DY:a
8GGG 8GG	2a 2aa	8r	[ ff
8r	.	4b 4dd	.
[4G^^ [4d [4f	.	.	.
.	.	8b 8dd	.
=	=	=	=
8G] 8d] 8f]	2B 2b	8r	.
8r	.	4d 4f	.
4GG 4G	.	.	.
.	.	8d 8f	.
*	*v	*v	*
=	=	=
!	!	!LO:DY:a
8CCL	4c 4e 4cc	f
8GG	.	.
8E	4r	.
8GGJ	.	.
=	=	=
*^	*	*
4G 4B-X 4c#X	8C#XL 8E	4g	f
.	8GG	.	.
8.AL	8C# 8E	8.aL	.
.	8GGJ	.	.
16GJk	.	16gJk	.
=	=	=	=
*	*^	*	*
4ryy	8DL 8F	4G/ 4Bn 4d	[4g	.
.	8GG	.	.	.
4ryy	8D 8F	4ryy	8g] 8b 8dd 8gg	.
.	8GGJ	.	8r	.
*	*v	*v	*	*
=	=	=	=
4G 4B-X 4c#X	8C#XL 8E	4g	.
.	8GG	.	.
8.AL	8C# 8E	8.aL	.
.	8GGJ	.	.
16GJk	.	16gJk	.
=	=	=	=
*	*^	*	*
4ryy	8DL 8F	4G/ 4Bn 4d	[4g	.
.	8GG	.	.	.
4ryy	8D 8F	4ryy	8g] 8b 8dd 8gg	.
.	8GGJ	.	8r	.
*v	*v	*v	*	*
=	=	=
*-	*-	*-
!!!system-decoration: {(s1,s2)}
